src/svg/flow-parallel.svg

<svg version="1.2" baseProfile="tiny" xmlns="http://www.w3.org/2000/svg" width="24" height="24" viewBox="0 0 24 24"><g><path d="M18 16.184v-8.368c1.161-.415 2-1.514 2-2.816 0-1.654-1.346-3-3-3s-3 1.346-3 3c0 1.302.839 2.401 2 2.815v8.369c-1.161.415-2 1.514-2 2.816 0 1.654 1.346 3 3 3s3-1.346 3-3c0-1.302-.839-2.401-2-2.816zm-1-12.184c.552 0 1 .449 1 1s-.448 1-1 1-1-.449-1-1 .448-1 1-1zm0 16c-.552 0-1-.449-1-1s.448-1 1-1 1 .449 1 1-.448 1-1 1zM10 5c0-1.654-1.346-3-3-3s-3 1.346-3 3c0 1.302.839 2.401 2 2.815v8.369c-1.161.415-2 1.514-2 2.816 0 1.654 1.346 3 3 3s3-1.346 3-3c0-1.302-.839-2.401-2-2.816v-8.368c1.161-.415 2-1.514 2-2.816zm-3-1c.552 0 1 .449 1 1s-.448 1-1 1-1-.449-1-1 .448-1 1-1zm0 16c-.552 0-1-.449-1-1s.448-1 1-1 1 .449 1 1-.448 1-1 1z"/></g></svg>

<?xml version="1.0" encoding="iso-8859-1"?>
<!-- Generator: Adobe Illustrator 16.2.1, SVG Export Plug-In . SVG Version: 6.00 Build 0)  -->
<svg version="1.2" baseProfile="tiny" xmlns="http://www.w3.org/2000/svg" xmlns:xlink="http://www.w3.org/1999/xlink" x="0px"
	 y="0px" width="24px" height="24px" viewBox="0 0 24 24" xml:space="preserve">
<g id="Layer_1">
	<g>
		<path d="M18,16.184V7.816C19.161,7.401,20,6.302,20,5c0-1.654-1.346-3-3-3s-3,1.346-3,3c0,1.302,0.839,2.401,2,2.815v8.369
			c-1.161,0.415-2,1.514-2,2.816c0,1.654,1.346,3,3,3s3-1.346,3-3C20,17.698,19.161,16.599,18,16.184z M17,4c0.552,0,1,0.449,1,1
			s-0.448,1-1,1s-1-0.449-1-1S16.448,4,17,4z M17,20c-0.552,0-1-0.449-1-1s0.448-1,1-1s1,0.449,1,1S17.552,20,17,20z"/>
		<path d="M10,5c0-1.654-1.346-3-3-3S4,3.346,4,5c0,1.302,0.839,2.401,2,2.815v8.369C4.839,16.599,4,17.698,4,19
			c0,1.654,1.346,3,3,3s3-1.346,3-3c0-1.302-0.839-2.401-2-2.816V7.816C9.161,7.401,10,6.302,10,5z M7,4c0.552,0,1,0.449,1,1
			S7.552,6,7,6S6,5.551,6,5S6.448,4,7,4z M7,20c-0.552,0-1-0.449-1-1s0.448-1,1-1s1,0.449,1,1S7.552,20,7,20z"/>
	</g>
</g>
<g id="nyt_x5F_exporter_x5F_info" display="none">
</g>
</svg>
